X:618
T: DA STEH I HIER OBEN
N: E0571
O: Europa, Mitteleuropa, Deutschland, Ober - Bayern
R: Liebes - Lied
M: 3/4
L: 1/8
K: G
B | B2A3e | edB3
c | BAE3F | G2D2z
B | B2A3e | edB3
c | BAE3F | G2D2z
A | BAE3A | BAF3
A | A2B2^c2 | d4
cB | B2A3e | edB3
c | BAE3F | G4
cB | B2A3e | edB3
c | BAE3F | G4z

@@@ Tune index: 4268
